X: 955
T: Lamaload **
R: Reel
C: Steve Hodgskiss
M: 4/4
L: 1/8
Q: 170
K: G
|:"G"d4"C"cBAG|"Am"EFGB"D"A2D2|"G"d3d "C"edcB|"Am"cBAG"D"A2D2|
"G"d3d "C"egcB|"Am"ceAc"D"d2AG/A/|"G"BDGB "C"cBAG|"D"EG2A"G"G4:|
|:"Am"EA2Bc3d|edcB"D"d2A2|"Am"EA2Bc2[B2e2]|[aA][bB][aA][gG]"D"[f2F2][d2D2]|
"Am"A>GAB c>Bcd|edcB "D"d2A2|"Am"e2e2 "(G/B)"dcBA|"(C)"cBAG "D"A2D2:|]

%%newpage
%%textfont * 14
%%begintext justify
%%Listening Sets
%%endtext
